IMB-X-Files/The-Ambassadors-Assets/66101552b8ded71639b5023c_﹟79-1.svg

<svg fill="none" height="104" viewBox="0 0 104 104" width="104" xmlns="http://www.w3.org/2000/svg"><path d="m95.1678 8.84155-32.3779 32.31695h-21.6956l-32.34474-32.31695zm0 0-32.3282 32.26715v21.7104l32.2951 32.2838m.0331-86.26135-.0331 86.26135m-9.9038-76.3508h-66.5775m60.3503 6.2148h-54.1232m49.8669 4.2592h-45.6106m42.5136 3.0991h-39.4165m37.0482 2.3533h-34.6799m32.825 1.8562h-30.9701m29.4795 1.4915h-27.989m26.7469 1.2264h-25.5048m24.478 1.0275h-23.4512m3.0474.8784-25.9023-32.31695m28.0718 32.31695-19.4267-32.31695m21.5963 32.31695-12.9512-32.31695m15.1207 32.31695-6.4755-32.31695m8.6451 32.31695v-32.31695m2.1696 32.31695 6.4756-32.31695m-4.3061 32.31695 12.9512-32.31695m-10.7816 32.31695 19.4267-32.31695m-17.2571 32.31695 25.9023-32.31695m-77.83939 86.26135 32.27849-32.2672v-21.7104l-32.19568-32.28375h-.09937zm0 0h86.45139m-86.45139 0 32.37789-32.317h21.6956l32.3779 32.317m-76.5641-76.4337v66.6226m6.2106-60.3912v54.1764m4.2563-49.9172v45.6414m3.097-42.5257v39.4266m2.3517-37.0733v34.7034m1.8549-32.8473v30.9911m1.4906-29.4995v28.008m1.2255-26.765v25.5386m1.0268-24.5111v23.467m.8778-3.0494-32.29505 25.9199m32.29505-28.0909-32.29505 19.4399m32.29505-21.6109-32.29505 12.9599m32.29505-15.131-32.29505 6.48m32.29505-8.651h-32.29505m32.29505-2.171-32.29505-6.48m32.29505 4.3089-32.29505-12.9599m32.29505 10.7889-32.29505-19.4399m32.29505 17.2689-32.29505-25.9199m9.95345 67.8158h66.5775m-60.3503-6.2147h54.1232m-49.8669-4.2593h45.6106m-42.5136-3.0991h39.4166m-37.0483-2.3533h34.6799m-32.825-1.8396h30.9702m-29.4796-1.4915h27.989m-26.7469-1.243h25.5214m-24.4946-1.0275h23.4512m-3.0473-.8784 25.9022 32.317m-28.0718-32.317 19.4267 32.317m-21.5963-32.317 12.9512 32.317m-15.1207-32.317 6.4755 32.317m-8.6451-32.317v32.317m-2.1696-32.317-6.4755 32.317m4.306-32.317-12.9512 32.317m10.7816-32.317-19.4267 32.317m17.2571-32.317-25.9023 32.317m67.9025-9.8277v-66.6226m-6.2106 60.3912v-54.1598m-4.2563 49.9006v-45.6414m-3.0971 42.5423v-39.4432m-2.3517 37.0733v-34.7034m-1.8549 32.8473v-30.9911m-1.4905 29.4995v-28.008m-1.2256 26.7651v-25.5221m-1.0268 24.4945v-23.467m-.8778 3.0494 32.2951-25.9198m-32.2951 28.0908 32.2951-19.4399m-32.2951 21.611 32.2951-12.96m-32.2951 15.131 32.2951-6.48m-32.2951 8.651h32.2951m-32.2951 2.1711 32.2951 6.4799m-32.2951-4.3089 32.2951 12.9599m-32.2951-10.7889 32.2951 19.4399m-32.2951-17.2688 32.2951 25.9198" stroke="#dcff93" stroke-linecap="round" stroke-linejoin="round"/></svg>

<svg width="104" height="104" viewBox="0 0 104 104" fill="none" xmlns="http://www.w3.org/2000/svg">
    <path
        d="M95.1678 8.84155L62.7899 41.1585H41.0943L8.74956 8.84155H95.1678ZM95.1678 8.84155L62.8396 41.1087V62.8191L95.1347 95.1029M95.1678 8.84155L95.1347 95.1029M85.2309 18.7521H18.6534M79.0037 24.9669H24.8805M74.7474 29.2261H29.1368M71.6504 32.3252H32.2339M69.2821 34.6785H34.6022M67.4272 36.5347H36.4571M65.9366 38.0262H37.9476M64.6945 39.2526H39.1897M63.6677 40.2801H40.2165M43.2639 41.1585L17.3616 8.84155M45.4334 41.1585L26.0067 8.84155M47.603 41.1585L34.6518 8.84155M49.7725 41.1585L43.297 8.84155M51.9421 41.1585V8.84155M54.1117 41.1585L60.5873 8.84155M56.2812 41.1585L69.2324 8.84155M58.4508 41.1585L77.8775 8.84155M60.6204 41.1585L86.5227 8.84155M8.68331 95.1029L40.9618 62.8357V41.1253L8.76612 8.84155H8.66675L8.68331 95.1029ZM8.68331 95.1029L95.1347 95.1029M8.68331 95.1029L41.0612 62.7859H62.7568L95.1347 95.1029M18.5706 18.6692V85.2918M24.7812 24.9006V79.077M29.0375 29.1598V74.8012M32.1345 32.2755V71.7021M34.4862 34.6288V69.3322M36.3411 36.4849V67.476M37.8317 37.9765V65.9845M39.0572 39.2195V64.7581M40.084 40.247V63.714M40.9618 60.6646L8.66675 86.5845M40.9618 58.4936L8.66675 77.9335M40.9618 56.3226L8.66675 69.2825M40.9618 54.1515L8.66675 60.6315M40.9618 51.9805H8.66675M40.9618 49.8095L8.66675 43.3295M40.9618 47.6384L8.66675 34.6785M40.9618 45.4674L8.66675 26.0275M40.9618 43.2964L8.66675 17.3765M18.6202 85.1923H85.1977M24.8474 78.9776H78.9706M29.1037 74.7183H74.7143M32.2007 71.6192H71.6173M34.569 69.2659H69.2489M36.4239 67.4263H67.3941M37.9145 65.9348H65.9035M39.1566 64.6918H64.678M40.1834 63.6643H63.6346M60.5873 62.7859L86.4895 95.1029M58.4177 62.7859L77.8444 95.1029M56.2481 62.7859L69.1993 95.1029M54.0786 62.7859L60.5541 95.1029M51.909 62.7859V95.1029M49.7394 62.7859L43.2639 95.1029M47.5699 62.7859L34.6187 95.1029M45.4003 62.7859L25.9736 95.1029M43.2307 62.7859L17.3284 95.1029M85.2309 85.2752V18.6526M79.0203 79.0438V24.884M74.764 74.7846V29.1432M71.6669 71.6855V32.2423M69.3152 69.3156V34.6122M67.4603 67.4595V36.4684M65.9698 65.9679V37.9599M64.7442 64.725V39.2029M63.7174 63.6974V40.2304M62.8396 43.2798L95.1347 17.36M62.8396 45.4508L95.1347 26.0109M62.8396 47.6219L95.1347 34.6619M62.8396 49.7929L95.1347 43.3129M62.8396 51.9639H95.1347M62.8396 54.135L95.1347 60.6149M62.8396 56.306L95.1347 69.2659M62.8396 58.477L95.1347 77.9169M62.8396 60.6481L95.1347 86.5679"
        stroke="#DCFF93" stroke-linecap="round" stroke-linejoin="round" />
</svg>
